star-four-points-circle-outline.svg

<svg fill="currentColor" viewBox="0 0 24 24"><path d="m12 17 1.56-3.42L17 12l-3.44-1.56L12 7l-1.57 3.44L7 12l3.43 1.58zM8.17 2.76A10.1 10.1 0 0 1 12 2c1.31 0 2.61.26 3.83.76 1.21.5 2.31 1.24 3.24 2.17s1.67 2.03 2.17 3.24c.5 1.22.76 2.52.76 3.83 0 2.65-1.05 5.2-2.93 7.07A9.97 9.97 0 0 1 12 22a10.1 10.1 0 0 1-3.83-.76 10 10 0 0 1-3.24-2.17A9.97 9.97 0 0 1 2 12c0-2.65 1.05-5.2 2.93-7.07.93-.93 2.03-1.67 3.24-2.17m-1.83 14.9C7.84 19.16 9.88 20 12 20s4.16-.84 5.66-2.34S20 14.12 20 12s-.84-4.16-2.34-5.66A8 8 0 0 0 12 4c-2.12 0-4.16.84-5.66 2.34A8 8 0 0 0 4 12c0 2.12.84 4.16 2.34 5.66"/></svg>

<svg  viewBox="0 0 24 24" fill="currentColor"><path  d="M12 17L13.56 13.58L17 12L13.56 10.44L12 7L10.43 10.44L7 12L10.43 13.58L12 17M8.17 2.76C9.39 2.26 10.69 2 12 2C13.31 2 14.61 2.26 15.83 2.76C17.04 3.26 18.14 4 19.07 4.93C20 5.86 20.74 6.96 21.24 8.17C21.74 9.39 22 10.69 22 12C22 14.65 20.95 17.2 19.07 19.07C17.2 20.95 14.65 22 12 22C10.69 22 9.39 21.74 8.17 21.24C6.96 20.74 5.86 20 4.93 19.07C3.05 17.2 2 14.65 2 12C2 9.35 3.05 6.8 4.93 4.93C5.86 4 6.96 3.26 8.17 2.76M6.34 17.66C7.84 19.16 9.88 20 12 20C14.12 20 16.16 19.16 17.66 17.66C19.16 16.16 20 14.12 20 12C20 9.88 19.16 7.84 17.66 6.34C16.16 4.84 14.12 4 12 4C9.88 4 7.84 4.84 6.34 6.34C4.84 7.84 4 9.88 4 12C4 14.12 4.84 16.16 6.34 17.66Z"/></svg>
